X: 1072
T:Schaefer's Barndance
M:4/4
L:1/8
S:Schaefer manuscripts in the National Library of Australia
R:Schottische
A:Australia
Z:Transcribed into ABC by John Furlonger
K:G
Bc|G2 d>B D>G B2|A2 E>c E>G c2|B>A F>d F>A d>c|B>c (3GBA (3GFE D2|
G2 d>B D>G B2|B>A E>C E>G c2|F>A G>A F>E D>E|B>c G2 B2 G2|
D2 d>e d>B G2|D2 A>B A>G F2|F>G d>c e>d B>G|B>c (3ABA (3GFE D2|
D2 d>e d>B G2|d>c A>B A>F D2|A>F B>d B>G E>B|G2 B2 G2||
